X:12 
T:Caledonian Laddie (reel), The
B:OFPC2.88
C:file ID: ofpc.2/12clad
Q:180
M:4/4
L:1/8
R:reel 
K:D
E|D3E FEFA|BABd e3f|dcBA BdAF|GB E2 EFGE|
"5"D3E FEFA|BABd e3f|dcBA BdAG|FAD2 D3 :|
d/e/|"9"f2f2 gfed|cdec A2 Bc|d2 B2 Bcde|f2f2 B2 cd|
"13"A3B AFEF|D2d2 d2cB|A3B BAGF|B2E2 E2F2|
"17"D3E FDFA|d2d2 f3D|E3F GEGB|e2e2 g2 ef|
"21"gfe^d eBe=d|cBce A2 Bc|d3F EFGA|F2 D2 D3 :|

